X: 11401
T: East Clare, The
R: reel
M: 4/4
K: Dmixolydian
DEFA d2 cA|GEED EFGc|Add^c d2 ed|cAGE EDCE|
DEFA d2 cA|GEED EFGc|Add^c dfed|cAGE EDD2||
aged c2 cd|ed B/c/d eg~g2|aged c2cd|cAGE EDD2|
ed e/f/g aged|c2 cd cAGE|=FEDE FGAB|cAGE EDCE||

